build/images/icons/partners.svg

<svg width="47" height="42" viewBox="0 0 47 42" fill="none" xmlns="http://www.w3.org/2000/svg">
<path d="M36.4615 7.53929C37.4168 7.53758 38.3545 7.28185 39.1784 6.7983L46.9529 2.19945V0L38.2257 5.15165C37.5637 5.53178 36.8132 5.73057 36.0498 5.72798L24.4645 5.58684C23.8764 5.37513 23.4177 5.24575 23.2883 5.17518C20.5385 4.49276 17.6637 4.49276 14.9139 5.17518C13.4477 5.57763 11.8868 5.45276 10.5033 4.82232L0 0V19.254L1.09384 19.8539C2.69269 20.736 3.97883 22.092 4.77528 23.7352L4.16366 24.241C3.38627 24.8259 2.85857 25.683 2.68627 26.6404C2.51396 27.5979 2.70978 28.5852 3.23448 29.4044C3.83398 30.1892 4.70778 30.7185 5.68093 30.8864H6.10435C6.42188 30.9117 6.74117 30.9038 7.05706 30.8629C7.05103 31.6562 7.29825 32.4309 7.76276 33.0741C8.09388 33.508 8.52115 33.8591 9.01096 34.1C9.50078 34.3408 10.0398 34.4647 10.5856 34.462H11.4089C11.3056 35.3555 11.5545 36.2542 12.1029 36.9672C12.6971 37.7599 13.5727 38.2946 14.5493 38.461H14.961C15.8015 38.5063 16.632 38.2613 17.3133 37.767L17.6779 37.4847C17.7493 38.0067 17.9472 38.5033 18.2543 38.9314C18.7606 39.6205 19.5161 40.0848 20.3596 40.2252H20.7125C21.439 40.2606 22.1561 40.0492 22.7472 39.6254H22.8061L23.2412 40.237C23.5917 40.7298 24.1107 41.077 24.7 41.2127C25.2894 41.3484 25.908 41.2631 26.4386 40.9732C26.9693 40.6832 27.3752 40.2086 27.5793 39.6393C27.7834 39.0701 27.7716 38.4457 27.546 37.8846L27.6284 38.0023C27.9718 38.527 28.4863 38.9168 29.0844 39.1054C29.6825 39.2941 30.3275 39.27 30.9099 39.0373C31.512 38.7879 31.9997 38.3234 32.278 37.7342C32.5563 37.145 32.6053 36.4732 32.4154 35.8498C32.8505 36.3389 33.4495 36.652 34.0995 36.73C34.7494 36.808 35.4055 36.6455 35.9439 36.2733C36.4769 35.9232 36.8655 35.3926 37.0384 34.7789C37.2113 34.1652 37.1567 33.5097 36.8849 32.9329C37.1343 33.214 37.4367 33.4433 37.7747 33.6075C38.1128 33.7718 38.4799 33.8678 38.855 33.8902C39.2302 33.9126 39.6061 33.8609 39.9613 33.738C40.3164 33.6151 40.6439 33.4235 40.925 33.174C41.2062 32.9246 41.4354 32.6222 41.5996 32.2842C41.7639 31.9461 41.86 31.5791 41.8824 31.2039C41.9047 30.8287 41.853 30.4528 41.7301 30.0977C41.6073 29.7425 41.4156 29.415 41.1662 29.1339L39.8018 27.1814L42.7775 23.7117C43.558 22.7964 44.4887 22.0208 45.5298 21.4182L47 20.5713V18.2778L44.977 19.454C43.8158 20.1091 42.7772 20.9607 41.9072 21.971L38.6844 25.6406C38.1635 25.1662 37.4857 24.9009 36.7811 24.8956C36.0765 24.8904 35.3949 25.1456 34.8669 25.6123C34.339 26.0789 34.0021 26.7242 33.9208 27.4241C33.8396 28.124 34.0197 28.8292 34.4267 29.4044V29.522C33.9687 29.2054 33.4251 29.0358 32.8682 29.0358C32.3114 29.0358 31.7678 29.2054 31.3098 29.522V29.5808C30.8939 29.871 30.5705 30.2751 30.3786 30.7445C30.1866 31.2139 30.1343 31.7288 30.2277 32.2272L29.9219 32.4507C29.4814 32.1951 28.9768 32.0714 28.468 32.0943C27.9592 32.1172 27.4678 32.2859 27.0521 32.5801C26.6705 32.8381 26.3618 33.1901 26.1558 33.6022C25.9498 34.0142 25.8534 34.4723 25.8759 34.9324L25.029 35.4735C24.7032 35.4032 24.3666 35.3992 24.0392 35.4619C23.7119 35.5245 23.4005 35.6525 23.1236 35.8381C22.798 36.0759 22.5334 36.3875 22.3515 36.7473C22.1695 37.1071 22.0754 37.505 22.0768 37.9082L21.6534 38.1787C21.5141 38.2927 21.3504 38.3732 21.175 38.414C20.9996 38.4548 20.8173 38.4547 20.6419 38.4139C20.2752 38.3423 19.9482 38.1369 19.7245 37.8376C19.6084 37.6993 19.5258 37.5361 19.4829 37.3607C19.4401 37.1852 19.4382 37.0023 19.4775 36.8261C19.5572 36.4597 19.7659 36.1341 20.0656 35.9087L24.6997 32.4977C24.8153 32.4245 24.9112 32.3241 24.9789 32.2051C25.0466 32.0861 25.084 31.9524 25.0878 31.8156C25.0926 31.6885 25.0718 31.5618 25.0268 31.4429C24.9817 31.324 24.9134 31.2153 24.8257 31.1232C24.738 31.0311 24.6328 30.9575 24.5162 30.9067C24.3996 30.856 24.274 30.8291 24.1469 30.8276C23.9555 30.8251 23.7676 30.8782 23.6059 30.9805L16.2665 36.2968C15.8477 36.5859 15.3357 36.7076 14.8316 36.6379C14.5815 36.6013 14.3417 36.5135 14.1272 36.3799C13.9126 36.2464 13.728 36.0699 13.5848 35.8616C13.4445 35.6556 13.3467 35.4236 13.2973 35.1792C13.2479 34.9349 13.2479 34.6831 13.2972 34.4387C13.3465 34.1944 13.4442 33.9623 13.5845 33.7562C13.7248 33.5502 13.9048 33.3742 14.1141 33.2387L22.8061 27.0521C22.9093 26.9607 22.9921 26.8484 23.0489 26.7227C23.1056 26.597 23.1351 26.4607 23.1354 26.3228C23.1356 26.0793 23.0413 25.8451 22.8724 25.6696C22.7035 25.4942 22.4731 25.391 22.2297 25.3819C22.0934 25.373 21.9569 25.3973 21.832 25.4526C21.7071 25.5079 21.5974 25.5926 21.5123 25.6994L12.9379 31.8273C12.7352 31.9469 12.5526 32.0977 12.3969 32.2743C11.9293 32.5907 11.3688 32.7407 10.8057 32.7002C10.2425 32.6596 9.70929 32.4309 9.29179 32.0508C9.02762 31.6702 8.90742 31.208 8.95267 30.7469C8.99792 30.2858 9.20567 29.8558 9.53879 29.5338L10.3974 28.9457L19.9244 22.4414C20.0401 22.3692 20.1354 22.2687 20.2013 22.1493C20.2672 22.0299 20.3014 21.8956 20.3008 21.7593C20.3103 21.6038 20.2796 21.4486 20.2116 21.3085C20.1436 21.1684 20.0407 21.0482 19.9127 20.9595C19.7621 20.8504 19.581 20.7917 19.3951 20.7917C19.2093 20.7917 19.0282 20.8504 18.8776 20.9595L8.68018 27.8519C8.68018 27.9695 8.50375 28.0165 8.43318 28.0753L7.4452 28.7928C7.0389 29.0569 6.54641 29.154 6.07027 29.0641C5.59413 28.9741 5.17105 28.7039 4.88911 28.3098C4.60718 27.9157 4.48813 27.4281 4.55675 26.9484C4.62537 26.4687 4.87638 26.034 5.25751 25.7347L24.488 11.6206C25.5593 12.337 26.4721 13.2657 27.1697 14.3493C29.0633 20.2302 31.4039 20.3126 32.8388 19.6069C33.1949 19.4206 33.4725 19.1129 33.6213 18.7397C33.7702 18.3665 33.7805 17.9523 33.6504 17.5721C33.0761 15.3692 32.6827 13.1231 32.4742 10.8561C31.9449 9.67993 30.2395 8.50375 28.3576 7.52753L34.5325 7.62162L36.4615 7.53929Z" fill="#10182E"/>
</svg>

<svg width="47" height="42" fill="none" xmlns="http://www.w3.org/2000/svg"><path d="M36.462 7.54a5.387 5.387 0 002.716-.742L46.953 2.2V0l-8.727 5.152a4.34 4.34 0 01-2.176.576l-11.585-.141c-.589-.212-1.047-.341-1.177-.412a17.384 17.384 0 00-8.374 0 6.492 6.492 0 01-4.41-.353L0 0v19.254l1.094.6a8.833 8.833 0 013.681 3.881l-.611.506a3.858 3.858 0 00-.93 5.163 3.916 3.916 0 002.447 1.482h.423c.318.026.637.018.953-.023a3.729 3.729 0 00.706 2.211 3.53 3.53 0 002.823 1.388h.823a3.458 3.458 0 00.694 2.505 3.87 3.87 0 002.446 1.494h.412a3.67 3.67 0 002.352-.694l.365-.282c.071.522.27 1.018.576 1.446a3.281 3.281 0 002.106 1.294h.352a3.223 3.223 0 002.035-.6h.06l.434.612a2.47 2.47 0 004.305-2.352l.082.117a2.717 2.717 0 003.282 1.035 2.623 2.623 0 001.505-3.187 2.682 2.682 0 003.529.423 2.647 2.647 0 00.94-3.34 2.86 2.86 0 104.282-3.8l-1.364-1.952 2.976-3.47c.78-.915 1.71-1.69 2.752-2.293l1.47-.847v-2.293l-2.023 1.176a11.523 11.523 0 00-3.07 2.517l-3.223 3.67a2.859 2.859 0 00-4.257 3.763v.118a2.74 2.74 0 00-3.117 0v.059a2.635 2.635 0 00-1.082 2.646l-.306.224a2.659 2.659 0 00-2.87.13 2.68 2.68 0 00-1.176 2.351l-.847.541a2.48 2.48 0 00-1.905.365 2.551 2.551 0 00-1.047 2.07l-.424.27a1.176 1.176 0 01-1.011.236 1.506 1.506 0 01-.918-.576 1.176 1.176 0 01-.247-1.012c.08-.366.289-.692.589-.917l4.634-3.411a.835.835 0 00.388-.682.951.951 0 00-.941-.988.988.988 0 00-.541.152l-7.34 5.317a2.03 2.03 0 01-1.434.34 1.835 1.835 0 01-1.535-1.458 1.87 1.87 0 01.817-1.94l8.692-6.187a.978.978 0 00.33-.73.941.941 0 00-.906-.94.846.846 0 00-.718.317l-8.574 6.128c-.203.12-.385.27-.541.447a2.517 2.517 0 01-3.105-.223 1.952 1.952 0 01.247-2.517l.858-.588 9.527-6.505a.8.8 0 00.377-.682.906.906 0 00-.388-.8.882.882 0 00-1.035 0L8.68 27.852c0 .117-.176.165-.247.223l-.988.718a1.882 1.882 0 01-2.187-3.058l19.23-14.114a9.411 9.411 0 012.682 2.728c1.893 5.881 4.234 5.964 5.669 5.258a1.682 1.682 0 00.811-2.035 41.796 41.796 0 01-1.176-6.716c-.53-1.176-2.234-2.352-4.116-3.328l6.174.094 1.93-.083z" fill="#10182E"/></svg>
